spyder/images/dark/binary.svg

<svg width="24" height="24" viewBox="0 0 24 24" fill="none" xmlns="http://www.w3.org/2000/svg">
<path fill-rule="evenodd" clip-rule="evenodd" d="M4 4C4 2.89 4.89 2 6 2H14L20 8V20C20 20.5304 19.7893 21.0391 19.4142 21.4142C19.0391 21.7893 18.5304 22 18 22H6C5.46957 22 4.96086 21.7893 4.58579 21.4142C4.21071 21.0391 4 20.5304 4 20V4ZM10.7679 9.18763C10.3102 8.39588 9.63088 8 8.72997 8C7.8218 8 7.13885 8.39588 6.68113 9.18763C6.22704 9.97526 6 11.0742 6 12.4845C6 13.899 6.22704 15.0062 6.68113 15.8062C7.13885 16.6021 7.8218 17 8.72997 17C9.63088 17 10.3102 16.6021 10.7679 15.8062C11.2293 15.0062 11.4599 13.899 11.4599 12.4845C11.4599 11.0742 11.2293 9.97526 10.7679 9.18763ZM7.88537 10.1216C8.06337 9.65155 8.34491 9.41649 8.72997 9.41649C9.01696 9.41649 9.23855 9.49691 9.39476 9.65773C9.44174 9.70501 9.48465 9.7644 9.52347 9.83591L7.68642 14.1987C7.64105 13.7704 7.61837 13.199 7.61837 12.4845C7.61837 11.3753 7.70737 10.5876 7.88537 10.1216ZM8.06453 15.3583C8.22713 15.5126 8.44894 15.5897 8.72997 15.5897C8.9879 15.5897 9.19678 15.4907 9.35661 15.2928C9.52009 15.0948 9.63997 14.7691 9.71625 14.3155C9.79254 13.8577 9.83068 13.2474 9.83068 12.4845C9.83068 12.0259 9.82096 11.6267 9.80153 11.2869L8.06453 15.3583ZM16.5887 15.3113V8.2165H15.063L12.6272 9.89897L13.3574 11.2412L14.9104 10.1402V15.3113H13.0904V16.7897H18V15.3113H16.5887Z" fill="#FAFAFA"/>
</svg>

<svg xmlns="http://www.w3.org/2000/svg" width="24" height="24" fill="none"><path fill="#FAFAFA" fill-rule="evenodd" d="M4 4c0-1.11.89-2 2-2h8l6 6v12a2 2 0 0 1-2 2H6a2 2 0 0 1-2-2V4Zm6.768 5.188C10.31 8.396 9.63 8 8.73 8c-.908 0-1.591.396-2.049 1.188C6.227 9.975 6 11.074 6 12.484c0 1.415.227 2.522.681 3.322C7.14 16.602 7.821 17 8.73 17c.9 0 1.58-.398 2.038-1.194.461-.8.692-1.907.692-3.321 0-1.41-.23-2.51-.692-3.297Zm-2.883.934c.178-.47.46-.706.845-.706.287 0 .509.08.665.242.047.047.09.106.128.178l-1.837 4.363c-.045-.429-.068-1-.068-1.714 0-1.11.09-1.897.267-2.363Zm.18 5.236c.162.155.384.232.665.232a.767.767 0 0 0 .627-.297c.163-.198.283-.524.36-.977.076-.458.114-1.069.114-1.832 0-.458-.01-.857-.03-1.197l-1.736 4.071Zm8.524-.047V8.216h-1.526L12.627 9.9l.73 1.342 1.553-1.1v5.17h-1.82v1.479H18V15.31h-1.411Z" clip-rule="evenodd"/></svg>
